svgs/light/campfire.svg

<svg xmlns="http://www.w3.org/2000/svg" viewBox="0 0 512 512"><!--! Font Awesome Pro 6.3.0 by @fontawesome - https://fontawesome.com License - https://fontawesome.com/license (Commercial License) Copyright 2023 Fonticons, Inc. --><path d="M256 320c79.5 0 144-64.5 144-144c0-33.25-33.38-102-80-144c-13.38 12-25.5 24.75-36.13 37.5C266.4 46 244.6 22.25 220 0c-63.13 57-108 131.3-108 176C112 255.5 176.5 320 256 320zM220.2 44.38c14.12 14.38 27 29.38 38.13 44.25L282.4 121l26-31c3.5-4.25 7.25-8.375 11-12.38C350 114.5 368 159.3 368 176c0 61.75-50.25 112-112 112s-112-50.25-112-112C144 148.3 172 94.38 220.2 44.38zM501.5 480.1L302.5 408l199-72.97c8.281-3.062 12.55-12.25 9.5-20.53c-3.047-8.312-12.17-12.53-20.53-9.531L256 390.9L21.52 304.1c-8.297-3-17.48 1.219-20.53 9.531c-3.047 8.281 1.219 17.47 9.5 20.53L209.5 408l-199 72.97c-8.281 3.062-12.55 12.25-9.5 20.53C3.359 508 9.484 512 16 512c1.828 0 3.688-.3125 5.516-.9687L256 425.1l234.5 85.98C492.3 511.7 494.2 512 496 512c6.516 0 12.64-4 15.02-10.5C514.1 493.2 509.8 484 501.5 480.1z"/></svg>

<svg xmlns="http://www.w3.org/2000/svg" viewBox="0 0 512 512"><!-- Font Awesome Pro 6.0.0-alpha2 by @fontawesome - https://fontawesome.com License - https://fontawesome.com/license (Commercial License) --><path d="M256.031 320C335.531 320 400.031 255.5 400.031 176C400.031 142.75 366.656 74 320.031 32C306.656 44 294.531 56.75 283.906 69.5C266.406 46 244.656 22.25 220.031 0C156.906 57 112.031 131.25 112.031 176C112.031 255.5 176.531 320 256.031 320ZM220.156 44.375C234.281 58.75 247.156 73.75 258.281 88.625L282.406 121L308.406 90C311.906 85.75 315.656 81.625 319.406 77.625C350.031 114.5 368.031 159.25 368.031 176C368.031 237.75 317.781 288 256.031 288S144.031 237.75 144.031 176C144.031 148.25 172.031 94.375 220.156 44.375ZM501.516 480.969L302.51 408L501.516 335.031C509.797 331.969 514.062 322.781 511.016 314.5C507.969 306.188 498.844 301.969 490.484 304.969L256 390.947L21.516 304.969C13.219 301.969 4.031 306.187 0.984 314.5C-2.063 322.781 2.203 331.969 10.484 335.031L209.49 408L10.484 480.969C2.203 484.031 -2.063 493.219 0.984 501.5C3.359 508 9.484 512 16 512C17.828 512 19.687 511.688 21.516 511.031L256 425.053L490.484 511.031C492.312 511.688 494.172 512 496 512C502.516 512 508.641 508 511.016 501.5C514.062 493.219 509.797 484.031 501.516 480.969Z"/></svg>
